svgs/pinout.svg

<svg width="192" height="192" viewBox="0 0 192 192" fill="none" xmlns="http://www.w3.org/2000/svg">
<path d="M33.2317 135.212C26.1143 123.843 22 110.402 22 96C22 85.7073 24.1014 75.9055 27.8985 67M33.2317 135.212C39.2534 144.831 47.4246 152.966 57.0725 158.946M33.2317 135.212C82.0148 110.702 111.648 89.6021 151.295 46.8212M57.0725 158.946C68.3809 165.954 81.7179 170 96 170C136.869 170 170 136.869 170 96C170 89.1844 169.079 82.584 167.354 76.3166M57.0725 158.946C101.876 136.056 130.531 115.486 167.354 76.3166M151.295 46.8212C137.741 31.5924 117.991 22 96 22C89.3799 22 82.9628 22.8693 76.8567 24.5M151.295 46.8212C158.73 55.1747 164.3 65.2241 167.354 76.3166" stroke="black" stroke-width="12" stroke-linecap="round"/>
<path d="M50.5425 24.9353C50.9378 23.9544 52.3865 24.1784 52.4671 25.2328L53.3271 36.4767C53.3561 36.8559 53.5977 37.1858 53.9504 37.328L64.4099 41.5425C65.3908 41.9378 65.1669 43.3865 64.1125 43.4672L52.8686 44.3271C52.4894 44.3561 52.1595 44.5977 52.0173 44.9505L47.8027 55.41C47.4075 56.3909 45.9588 56.167 45.8781 55.1125L45.0182 43.8686C44.9892 43.4894 44.7476 43.1595 44.3948 43.0174L33.9353 38.8028C32.9544 38.4075 33.1783 36.9588 34.2328 36.8781L45.4767 36.0182C45.8559 35.9892 46.1858 35.7476 46.3279 35.3948L50.5425 24.9353Z" stroke="black" stroke-width="12" stroke-linejoin="round"/>
</svg>

<svg xmlns="http://www.w3.org/2000/svg" width="192" height="192" fill="none" viewBox="0 0 192 192"><path stroke="#000" stroke-linecap="round" stroke-width="12" d="M33.232 135.212C26.114 123.843 22 110.402 22 96c0-10.293 2.101-20.094 5.898-29m5.334 68.212a74.4 74.4 0 0 0 23.84 23.734m-23.84-23.734c48.783-24.51 78.416-45.61 118.063-88.39M57.073 158.945C68.38 165.954 81.717 170 96 170c40.869 0 74-33.131 74-74 0-6.816-.921-13.416-2.646-19.683M57.072 158.946c44.804-22.89 73.459-43.46 110.282-82.63m-16.059-29.495C137.741 31.592 117.991 22 96 22c-6.62 0-13.037.87-19.143 2.5m74.438 22.321a73.86 73.86 0 0 1 16.059 29.496"/><path stroke="#000" stroke-linejoin="round" stroke-width="12" d="M50.543 24.935c.395-.98 1.843-.757 1.924.298l.86 11.244a1 1 0 0 0 .623.851l10.46 4.214c.98.396.757 1.844-.297 1.925l-11.244.86a1 1 0 0 0-.852.624L47.803 55.41c-.395.98-1.844.757-1.925-.297l-.86-11.244a1 1 0 0 0-.623-.852l-10.46-4.214c-.98-.395-.757-1.844.298-1.925l11.244-.86a1 1 0 0 0 .85-.623z"/></svg>
